X: 10548
T: Dorn's Trip To St. Germain, The
R: reel
M: 4/4
K: Amajor
edcB c2 e2|A2 (3(ABc) d2 D2|dfeB c2 E2|cecA B2 (3EEE|E2 B,2 E4||BEGB eBGE|
E ~B3 e ~B3|GEGB AGF^D|EB,B,E EB,B,E|GEEG GEEG|FB,B,F FB,B,F|
AFFA AFFA|G ~B3 (FA) (3AAA|G ~B3 (FA) (3AAA|GFE^D EGFA|
GFE^D EB,G,B,|E8||[K:D]A,EED EFGE|(3(FED) CE D3 E|F<A ABAF DE|
(3(FED) GF E3 F|G ~B3 edcB|F<c cdcB AG|B, ~F3 A,EG,E|(3FED G,F E3 e||
fgeg f2 (3ddd|d2 A2 a3 b|agfe bdbc'|bagf g{a}gfg|
eAce a ~d3|BdAd a ~d3|BdAd BdGd|FdEd D2 (3(FGA)|
a ~d3 adbd|a ~d3 AdFA|GAFA GAEA|D8:|

